/* XPM */
static const char * const charset40_IIplus_xpm[] = {
/* columns rows colors chars-per-pixel */
"128 128 2 1 ",
"  c black",
". c white",
/* pixels */
"................................................................................................................................",
"..   ...... .....    .....   ....    ....     ...     ....    ... ... ....   ........ ... ... ... ....... ... ... ... ....   ...",
". ... .... . .... ... ... ... ... ... ... ....... ....... ....... ... ..... ......... ... .. .... .......  .  ... ... ... ... ..",
". . . ... ... ... ... ... ....... ... ... ....... ....... ....... ... ..... ......... ... . ..... ....... . . ...  .. ... ... ..",
". .   ... ... ...    .... ....... ... ...    ....    .... .......     ..... ......... ...  ...... ....... . . ... . . ... ... ..",
". .  ....     ... ... ... ....... ... ... ....... ....... ..  ... ... ..... ......... ... . ..... ....... ... ... ..  ... ... ..",
". ....... ... ... ... ... ... ... ... ... ....... ....... ... ... ... ..... ..... ... ... .. .... ....... ... ... ... ... ... ..",
"..    ... ... ...    .....   ....    ....     ... ........    ... ... ....   .....   .... ... ...     ... ... ... ... ....   ...",
"................................................................................................................................",
".    .....   ....    .....   ....     ... ... ... ... ... ... ... ... ... ... ...     ...     ...........     ..................",
". ... ... ... ... ... ... ... ..... ..... ... ... ... ... ... ... ... ... ... ....... ...  ...... ..........  ..................",
". ... ... ... ... ... ... ......... ..... ... ... ... ... ... .... . ..... . ....... ....  ....... .........  ..... ............",
".    .... ... ...    .....   ...... ..... ... ... ... ... . . ..... ....... ....... .....  ........ ........  .... . ...........",
". ....... . . ... . ......... ..... ..... ... ... ... ... . . .... . ...... ...... ......  ......... .......  ... ... ..........",
". ....... .. .... .. .... ... ..... ..... ... .... . ....  .  ... ... ..... ..... .......  .......... ......  ..................",
". ........  . ... ... ....   ...... ......   ...... ..... ... ... ... ..... .....     ...     ...........     ...........     ..",
"................................................................................................................................",
"........... ...... . ..... . ...... .....  ....... ........ ....... ....... ....... ............................................",
"........... ...... . ..... . .....    ...  .. ... . ....... ...... ......... .... . . ..... ................................. ..",
"........... ...... . ....     ... . ........ .... . ....... ..... ........... ....   ...... ................................ ...",
"........... .............. . .....   ...... ...... .............. ........... ..... .....     ...........     ............. ....",
"........... .............     ..... . .... ...... . . ........... ........... ....   ...... ....... ...................... .....",
".......................... . ....    .... ..  ... .. ............. ......... .... . . ..... ....... ..................... ......",
"........... .............. . ...... ........  ....  . ............. ....... ....... .............. ................ ............",
"................................................................................................................................",
"..   ...... ......   ....     ...... ....     .....   ...     ....   .....   ....................... ............. .......   ...",
". ... ....  ..... ... ....... .....  .... ........ .......... ... ... ... ... ..................... ............... ..... ... ..",
". ..  ..... ......... ...... ..... . ....    .... .......... .... ... ... ... ..... ....... ...... ......     ...... ....... ...",
". . . ..... .......  ......  .... .. ........ ...    ...... ......   .....    ................... ................... ..... ....",
".  .. ..... ...... .......... ...     ....... ... ... .... ...... ... ....... ..... ....... ...... ......     ...... ...... ....",
". ... ..... ..... ....... ... ...... .... ... ... ... .... ...... ... ...... .............. ....... ............... ............",
"..   .....   ....     ....   ....... .....   .....   ..... .......   ....   .............. ......... ............. ........ ....",
"................................................................................................................................",
"..   ...... .....    .....   ....    ....     ...     ....    ... ... ....   ........ ... ... ... ....... ... ... ... ....   ...",
". ... .... . .... ... ... ... ... ... ... ....... ....... ....... ... ..... ......... ... .. .... .......  .  ... ... ... ... ..",
". . . ... ... ... ... ... ....... ... ... ....... ....... ....... ... ..... ......... ... . ..... ....... . . ...  .. ... ... ..",
". .   ... ... ...    .... ....... ... ...    ....    .... .......     ..... ......... ...  ...... ....... . . ... . . ... ... ..",
". .  ....     ... ... ... ....... ... ... ....... ....... ..  ... ... ..... ......... ... . ..... ....... ... ... ..  ... ... ..",
". ....... ... ... ... ... ... ... ... ... ....... ....... ... ... ... ..... ..... ... ... .. .... ....... ... ... ... ... ... ..",
"..    ... ... ...    .....   ....    ....     ... ........    ... ... ....   .....   .... ... ...     ... ... ... ... ....   ...",
"................................................................................................................................",
".    .....   ....    .....   ....     ... ... ... ... ... ... ... ... ... ... ...     ...     ...........     ..................",
". ... ... ... ... ... ... ... ..... ..... ... ... ... ... ... ... ... ... ... ....... ...  ...... ..........  ..................",
". ... ... ... ... ... ... ......... ..... ... ... ... ... ... .... . ..... . ....... ....  ....... .........  ..... ............",
".    .... ... ...    .....   ...... ..... ... ... ... ... . . ..... ....... ....... .....  ........ ........  .... . ...........",
". ....... . . ... . ......... ..... ..... ... ... ... ... . . .... . ...... ...... ......  ......... .......  ... ... ..........",
". ....... .. .... .. .... ... ..... ..... ... .... . ....  .  ... ... ..... ..... .......  .......... ......  ..................",
". ........  . ... ... ....   ...... ......   ...... ..... ... ... ... ..... .....     ...     ...........     ...........     ..",
"................................................................................................................................",
"........... ...... . ..... . ...... .....  ....... ........ ....... ....... ....... ............................................",
"........... ...... . ..... . .....    ...  .. ... . ....... ...... ......... .... . . ..... ................................. ..",
"........... ...... . ....     ... . ........ .... . ....... ..... ........... ....   ...... ................................ ...",
"........... .............. . .....   ...... ...... .............. ........... ..... .....     ...........     ............. ....",
"........... .............     ..... . .... ...... . . ........... ........... ....   ...... ....... ...................... .....",
".......................... . ....    .... ..  ... .. ............. ......... .... . . ..... ....... ..................... ......",
"........... .............. . ...... ........  ....  . ............. ....... ....... .............. ................ ............",
"................................................................................................................................",
"..   ...... ......   ....     ...... ....     .....   ...     ....   .....   ....................... ............. .......   ...",
". ... ....  ..... ... ....... .....  .... ........ .......... ... ... ... ... ..................... ............... ..... ... ..",
". ..  ..... ......... ...... ..... . ....    .... .......... .... ... ... ... ..... ....... ...... ......     ...... ....... ...",
". . . ..... .......  ......  .... .. ........ ...    ...... ......   .....    ................... ................... ..... ....",
".  .. ..... ...... .......... ...     ....... ... ... .... ...... ... ....... ..... ....... ...... ......     ...... ...... ....",
". ... ..... ..... ....... ... ...... .... ... ... ... .... ...... ... ...... .............. ....... ............... ............",
"..   .....   ....     ....   ....... .....   .....   ..... .......   ....   .............. ......... ............. ........ ....",
"                                                                                                                                ",
"  ...      .     ....     ...    ....    .....   .....    ....   .   .    ...        .   .   .   .       .   .   .   .    ...   ",
" .   .    . .    .   .   .   .   .   .   .       .       .       .   .     .         .   .  .    .       .. ..   .   .   .   .  ",
" . . .   .   .   .   .   .       .   .   .       .       .       .   .     .         .   . .     .       . . .   ..  .   .   .  ",
" . ...   .   .   ....    .       .   .   ....    ....    .       .....     .         .   ..      .       . . .   . . .   .   .  ",
" . ..    .....   .   .   .       .   .   .       .       .  ..   .   .     .         .   . .     .       .   .   .  ..   .   .  ",
" .       .   .   .   .   .   .   .   .   .       .       .   .   .   .     .     .   .   .  .    .       .   .   .   .   .   .  ",
"  ....   .   .   ....     ...    ....    .....   .        ....   .   .    ...     ...    .   .   .....   .   .   .   .    ...   ",
"                                                                                                                                ",
" ....     ...    ....     ...    .....   .   .   .   .   .   .   .   .   .   .   .....   .....           .....                  ",
" .   .   .   .   .   .   .   .     .     .   .   .   .   .   .   .   .   .   .       .   ..      .          ..                  ",
" .   .   .   .   .   .   .         .     .   .   .   .   .   .    . .     . .       .    ..       .         ..     .            ",
" ....    .   .   ....     ...      .     .   .   .   .   . . .     .       .       .     ..        .        ..    . .           ",
" .       . . .   . .         .     .     .   .   .   .   . . .    . .      .      .      ..         .       ..   .   .          ",
" .       .  .    .  .    .   .     .     .   .    . .    .. ..   .   .     .     .       ..          .      ..                  ",
" .        .. .   .   .    ...      .      ...      .     .   .   .   .     .     .....   .....           .....           .....  ",
"                                                                                                                                ",
"           .      . .     . .      .     ..       .        .       .       .       .                                            ",
"           .      . .     . .     ....   ..  .   . .       .      .         .    . . .     .                                 .  ",
"           .      . .    .....   . .        .    . .       .     .           .    ...      .                                .   ",
"           .              . .     ...      .      .              .           .     .     .....           .....             .    ",
"           .             .....     . .    .      . . .           .           .    ...      .       .                      .     ",
"                          . .    ....    .  ..   .  .             .         .    . . .     .       .                     .      ",
"           .              . .      .        ..    .. .             .       .       .              .                .            ",
"                                                                                                                                ",
"  ...      .      ...    .....      .    .....     ...   .....    ...     ...                       .             .       ...   ",
" .   .    ..     .   .       .     ..    .        .          .   .   .   .   .                     .               .     .   .  ",
" .  ..     .         .      .     . .    ....    .          .    .   .   .   .     .       .      .      .....      .       .   ",
" . . .     .       ..      ..    .  .        .   ....      .      ...     ....                   .                   .     .    ",
" ..  .     .      .          .   .....       .   .   .    .      .   .       .     .       .      .      .....      .      .    ",
" .   .     .     .       .   .      .    .   .   .   .    .      .   .      .              .       .               .            ",
"  ...     ...    .....    ...       .     ...     ...     .       ...    ...              .         .             .        .    ",
"                                                                                                                                ",
"  ...      .     ....     ...    ....    .....   .....    ....   .   .    ...        .   .   .   .       .   .   .   .    ...   ",
" .   .    . .    .   .   .   .   .   .   .       .       .       .   .     .         .   .  .    .       .. ..   .   .   .   .  ",
" . . .   .   .   .   .   .       .   .   .       .       .       .   .     .         .   . .     .       . . .   ..  .   .   .  ",
" . ...   .   .   ....    .       .   .   ....    ....    .       .....     .         .   ..      .       . . .   . . .   .   .  ",
" . ..    .....   .   .   .       .   .   .       .       .  ..   .   .     .         .   . .     .       .   .   .  ..   .   .  ",
" .       .   .   .   .   .   .   .   .   .       .       .   .   .   .     .     .   .   .  .    .       .   .   .   .   .   .  ",
"  ....   .   .   ....     ...    ....    .....   .        ....   .   .    ...     ...    .   .   .....   .   .   .   .    ...   ",
"                                                                                                                                ",
" ....     ...    ....     ...    .....   .   .   .   .   .   .   .   .   .   .   .....   .....           .....                  ",
" .   .   .   .   .   .   .   .     .     .   .   .   .   .   .   .   .   .   .       .   ..      .          ..                  ",
" .   .   .   .   .   .   .         .     .   .   .   .   .   .    . .     . .       .    ..       .         ..     .            ",
" ....    .   .   ....     ...      .     .   .   .   .   . . .     .       .       .     ..        .        ..    . .           ",
" .       . . .   . .         .     .     .   .   .   .   . . .    . .      .      .      ..         .       ..   .   .          ",
" .       .  .    .  .    .   .     .     .   .    . .    .. ..   .   .     .     .       ..          .      ..                  ",
" .        .. .   .   .    ...      .      ...      .     .   .   .   .     .     .....   .....           .....           .....  ",
"                                                                                                                                ",
"           .      . .     . .      .     ..       .        .       .       .       .                                            ",
"           .      . .     . .     ....   ..  .   . .       .      .         .    . . .     .                                 .  ",
"           .      . .    .....   . .        .    . .       .     .           .    ...      .                                .   ",
"           .              . .     ...      .      .              .           .     .     .....           .....             .    ",
"           .             .....     . .    .      . . .           .           .    ...      .       .                      .     ",
"                          . .    ....    .  ..   .  .             .         .    . . .     .       .                     .      ",
"           .              . .      .        ..    .. .             .       .       .              .                .            ",
"                                                                                                                                ",
"  ...      .      ...    .....      .    .....     ...   .....    ...     ...                       .             .       ...   ",
" .   .    ..     .   .       .     ..    .        .          .   .   .   .   .                     .               .     .   .  ",
" .  ..     .         .      .     . .    ....    .          .    .   .   .   .     .       .      .      .....      .       .   ",
" . . .     .       ..      ..    .  .        .   ....      .      ...     ....                   .                   .     .    ",
" ..  .     .      .          .   .....       .   .   .    .      .   .       .     .       .      .      .....      .      .    ",
" .   .     .     .       .   .      .    .   .   .   .    .      .   .      .              .       .               .            ",
"  ...     ...    .....    ...       .     ...     ...     .       ...    ...              .         .             .        .    "
};
