/* XPM */
static const char * const charset40_german_xpm[] = {
/* columns rows colors chars-per-pixel */
"128 256 2 1 ",
"  c black",
". c white",
/* pixels */
"..    ..... .....    .....   ....    ....     ...     ....    ... ... ....   ........ ... ... ... ....... ... ... ... ....   ...",
". ........ . .... ... ... ... ... ... ... ....... ....... ....... ... ..... ......... ... .. .... .......  .  ... ... ... ... ..",
"..   .... ... ... ... ... ....... ... ... ....... ....... ....... ... ..... ......... ... . ..... ....... . . ...  .. ... ... ..",
". ... ... ... ...    .... ....... ... ...    ....    .... .......     ..... ......... ...  ...... ....... . . ... . . ... ... ..",
"..   ....     ... ... ... ....... ... ... ....... ....... ..  ... ... ..... ......... ... . ..... ....... ... ... ..  ... ... ..",
"..... ... ... ... ... ... ... ... ... ... ....... ....... ... ... ... ..... ..... ... ... .. .... ....... ... ... ... ... ... ..",
".    .... ... ...    .....   ....    ....     ... ........    ... ... ....   .....   .... ... ...     ... ... ... ... ....   ...",
"................................................................................................................................",
".    .....   ....    .....   ....     ... ... ... ... ... ... ... ... ... ... ...     ... ... ... ... ... ... ..................",
". ... ... ... ... ... ... ... ..... ..... ... ... ... ... ... ... ... ... ... ....... ..... ......   ...........................",
". ... ... ... ... ... ... ......... ..... ... ... ... ... ... .... . ..... . ....... ..... . .... ... ... ... ..... ............",
".    .... ... ...    .....   ...... ..... ... ... ... ... . . ..... ....... ....... ..... ... ... ... ... ... .... . ...........",
". ....... . . ... . ......... ..... ..... ... ... ... ... . . .... . ...... ...... ......     ... ... ... ... ... ... ..........",
". ....... .. .... .. .... ... ..... ..... ... .... . ....  .  ... ... ..... ..... ....... ... ... ... ... ... ..................",
". ........  . ... ... ....   ...... ......   ...... ..... ... ... ... ..... .....     ... ... ....   .....   ...................",
"........................................................................................................................       .",
"........... ...... . ..... . ...... .....  ....... ........ ....... ....... ....... ............................................",
"........... ...... . ..... . .....    ...  .. ... . ....... ...... ......... .... . . ..... ................................. ..",
"........... ...... . ....     ... . ........ .... . ....... ..... ........... ....   ...... ................................ ...",
"........... .............. . .....   ...... ...... .............. ........... ..... .....     ...........     ............. ....",
"........... .............     ..... . .... ...... . . ........... ........... ....   ...... ....... ...................... .....",
".......................... . ....    .... ..  ... .. ............. ......... .... . . ..... ....... ..................... ......",
"........... .............. . ...... ........  ....  . ............. ....... ....... .............. ................ ............",
"................................................................................................................................",
"..   ...... ......   ....     ...... ....     .....   ...     ....   .....   ....................... ............. .......   ...",
". ... ....  ..... ... ....... .....  .... ........ .......... ... ... ... ... ..................... ............... ..... ... ..",
". ..  ..... ......... ...... ..... . ....    .... .......... .... ... ... ... ..... ....... ...... ......     ...... ....... ...",
". . . ..... .......  ......  .... .. ........ ...    ...... ......   .....    ................... ................... ..... ....",
".  .. ..... ...... .......... ...     ....... ... ... .... ...... ... ....... ..... ....... ...... ......     ...... ...... ....",
". ... ..... ..... ....... ... ...... .... ... ... ... .... ...... ... ...... .............. ....... ............... ............",
"..   .....   ....     ....   ....... .....   .....   ..... .......   ....   .............. ......... ............. ........ ....",
"................................................................................................................................",
"    .       .           .......         .......     ...            .               .       .    .......       . ......  ..  .   ",
"   .       .             .   .        . ......       ..    ..     .                .      ...                 . ......     ..   ",
" .. ..   .. ..   .        . .        .  ..... .  ...... ...      .                 .     . . .                . ......    ...   ",
"....... .     .  ..        .    .   .     .. .. .   ..          .......            .    .  .  .           .   . ......   ...... ",
"......  .    .   ...       .     . .    . . ... .  .... ...      .              .  .  .    .             ..   . ......    ...   ",
"......  .    .   ....     . .     .     .. ....     ..    ..      .              . . .     .            ....... ......     ..   ",
" ......  . .  .  .. ..   . . .    .     .. .... ......     .       .              ...      .             ..     ......      .   ",
" .. ..   .. ..   .    . .......         .......  .          ...          . . .     .       .              .     ......  .... .. ",
"  .  ..       .       .         .          .     . . .  . . . .                       .    .    .......   . .   ....... .       ",
"  ..       .  .    .  .         .           .   . . . .  . . .   .....                .   ...             . .         . .       ",
"  ...      .      ...           .            .   . . .  . . . . .     . ......        .  .....          ... ...       . .       ",
"......  .......  .....  ....... .       ....... . . . .  . . .  .             .       . .......                   ..  . .       ",
"  ...    .....  .......         .            .   . . .  . . . . .             .       .  .....          ... ...   ..  . .       ",
"  ..      ...      .            .           .   . . . .  . . .  .             .       .   ...             . .         . .       ",
"  .        .  .    .  .         .          .     . . .  . . . . ....... .......       .    .              . .         . .       ",
".. ....       .       .         .......         . . . .  . . .                        .         .......         ....... .       ",
".. .............. ................... .............  ............ ......... ........ .... ........  ............................",
"... ............. ................... ............ .. ........... ....................... ......... ............................",
".... .....   ....    .....    ....    ....   ..... .......   ....    .....  .......  .... ... ..... .....  .  ...    .....   ...",
"............. ... ... ... ....... ... ... ... ...    .... ... ... ... ..... ........ .... .. ...... ..... . . ... ... ... ... ..",
"..........    ... ... ... ....... ... ...     .... ...... ... ... ... ..... ........ ....   ....... ..... . . ... ... ... ... ..",
"......... ... ... ... ... ....... ... ... ........ .......    ... ... ..... ........ .... .. ...... ..... . . ... ... ... ... ..",
"..........    ...    .....    ....    ....    .... .......... ... ... ....   .... .. .... ... ....   .... ... ... ... ....   ...",
"..........................................................   .....................  ............................................",
".................................. ..............................................................................    ...........",
".................................. ...................................................... ... ... ... ... ... ... ... ... . . ..",
".    .....    ... .   ....    ...    .... ... ... ... ... ... ... ... ... ... ...     ....   .....   ............ ... .... . ...",
". ... ... ... ...  ...... ........ ...... ... ... ... ... ... .... . .... ... ...... ........ ... ... ... ... ...    .... . . ..",
". ... ... ... ... ........   ..... ...... ... ... ... ... . . ..... ..... ... ..... ......    ... ... ... ... ... ... .... . ...",
".    .....    ... ........... .... .. ... ..  .... . .... . . .... . .....    .... ...... ... ... ... ... ..  ... ... ... . . ..",
". ........... ... .......    ......  .....  . ..... .....  .  ... ... ....... ...     ....    ....   .....  . ... .  ...........",
". ........... ............................................................   .................................... ..............",
"  ....     .     ....     ...    ....    .....   .....    ....   .   .    ...        .   .   .   .       .   .   .   .    ...   ",
" .        . .    .   .   .   .   .   .   .       .       .       .   .     .         .   .  .    .       .. ..   .   .   .   .  ",
"  ...    .   .   .   .   .       .   .   .       .       .       .   .     .         .   . .     .       . . .   ..  .   .   .  ",
" .   .   .   .   ....    .       .   .   ....    ....    .       .....     .         .   ..      .       . . .   . . .   .   .  ",
"  ...    .....   .   .   .       .   .   .       .       .  ..   .   .     .         .   . .     .       .   .   .  ..   .   .  ",
"     .   .   .   .   .   .   .   .   .   .       .       .   .   .   .     .     .   .   .  .    .       .   .   .   .   .   .  ",
" ....    .   .   ....     ...    ....    .....   .        ....   .   .    ...     ...    .   .   .....   .   .   .   .    ...   ",
"                                                                                                                                ",
" ....     ...    ....     ...    .....   .   .   .   .   .   .   .   .   .   .   .....   .   .   .   .   .   .                  ",
" .   .   .   .   .   .   .   .     .     .   .   .   .   .   .   .   .   .   .       .     .      ...                           ",
" .   .   .   .   .   .   .         .     .   .   .   .   .   .    . .     . .       .     . .    .   .   .   .     .            ",
" ....    .   .   ....     ...      .     .   .   .   .   . . .     .       .       .     .   .   .   .   .   .    . .           ",
" .       . . .   . .         .     .     .   .   .   .   . . .    . .      .      .      .....   .   .   .   .   .   .          ",
" .       .  .    .  .    .   .     .     .   .    . .    .. ..   .   .     .     .       .   .   .   .   .   .                  ",
" .        .. .   .   .    ...      .      ...      .     .   .   .   .     .     .....   .   .    ...     ...                   ",
"                                                                                                                        ....... ",
"           .      . .     . .      .     ..       .        .       .       .       .                                            ",
"           .      . .     . .     ....   ..  .   . .       .      .         .    . . .     .                                 .  ",
"           .      . .    .....   . .        .    . .       .     .           .    ...      .                                .   ",
"           .              . .     ...      .      .              .           .     .     .....           .....             .    ",
"           .             .....     . .    .      . . .           .           .    ...      .       .                      .     ",
"                          . .    ....    .  ..   .  .             .         .    . . .     .       .                     .      ",
"           .              . .      .        ..    .. .             .       .       .              .                .            ",
"                                                                                                                                ",
"  ...      .      ...    .....      .    .....     ...   .....    ...     ...                       .             .       ...   ",
" .   .    ..     .   .       .     ..    .        .          .   .   .   .   .                     .               .     .   .  ",
" .  ..     .         .      .     . .    ....    .          .    .   .   .   .     .       .      .      .....      .       .   ",
" . . .     .       ..      ..    .  .        .   ....      .      ...     ....                   .                   .     .    ",
" ..  .     .      .          .   .....       .   .   .    .      .   .       .     .       .      .      .....      .      .    ",
" .   .     .     .       .   .      .    .   .   .   .    .      .   .      .              .       .               .            ",
"  ...     ...    .....    ...       .     ...     ...     .       ...    ...              .         .             .        .    ",
"                                                                                                                                ",
"  ....     .     ....     ...    ....    .....   .....    ....   .   .    ...        .   .   .   .       .   .   .   .    ...   ",
" .        . .    .   .   .   .   .   .   .       .       .       .   .     .         .   .  .    .       .. ..   .   .   .   .  ",
"  ...    .   .   .   .   .       .   .   .       .       .       .   .     .         .   . .     .       . . .   ..  .   .   .  ",
" .   .   .   .   ....    .       .   .   ....    ....    .       .....     .         .   ..      .       . . .   . . .   .   .  ",
"  ...    .....   .   .   .       .   .   .       .       .  ..   .   .     .         .   . .     .       .   .   .  ..   .   .  ",
"     .   .   .   .   .   .   .   .   .   .       .       .   .   .   .     .     .   .   .  .    .       .   .   .   .   .   .  ",
" ....    .   .   ....     ...    ....    .....   .        ....   .   .    ...     ...    .   .   .....   .   .   .   .    ...   ",
"                                                                                                                                ",
" ....     ...    ....     ...    .....   .   .   .   .   .   .   .   .   .   .   .....   .   .   .   .   .   .                  ",
" .   .   .   .   .   .   .   .     .     .   .   .   .   .   .   .   .   .   .       .     .      ...                           ",
" .   .   .   .   .   .   .         .     .   .   .   .   .   .    . .     . .       .     . .    .   .   .   .     .            ",
" ....    .   .   ....     ...      .     .   .   .   .   . . .     .       .       .     .   .   .   .   .   .    . .           ",
" .       . . .   . .         .     .     .   .   .   .   . . .    . .      .      .      .....   .   .   .   .   .   .          ",
" .       .  .    .  .    .   .     .     .   .    . .    .. ..   .   .     .     .       .   .   .   .   .   .                  ",
" .        .. .   .   .    ...      .      ...      .     .   .   .   .     .     .....   .   .    ...     ...                   ",
"                                                                                                                        ....... ",
"  .              .                   .             ..            .         .        .    .        ..                            ",
"   .             .                   .            .  .           .                       .         .                            ",
"    .     ...    ....     ....    ....    ...     .       ...    ....     ..       ..    .   .     .     .. ..   ....     ...   ",
"             .   .   .   .       .   .   .   .   ....    .   .   .   .     .        .    .  .      .     . . .   .   .   .   .  ",
"          ....   .   .   .       .   .   .....    .      .   .   .   .     .        .    ...       .     . . .   .   .   .   .  ",
"         .   .   .   .   .       .   .   .        .       ....   .   .     .        .    .  .      .     . . .   .   .   .   .  ",
"          ....   ....     ....    ....    ....    .          .   .   .    ...    .  .    .   .    ...    .   .   .   .    ...   ",
"                                                          ...                     ..                                            ",
"                                  .                                                                              ....           ",
"                                  .                                                      .   .   .   .   .   .   .   .   . . .  ",
" ....     ....   . ...    ....   ....    .   .   .   .   .   .   .   .   .   .   .....    ...     ...            .   .    . .   ",
" .   .   .   .   ..      .        .      .   .   .   .   .   .    . .    .   .      .        .   .   .   .   .   ....    . . .  ",
" .   .   .   .   .        ...     .      .   .   .   .   . . .     .     .   .     .      ....   .   .   .   .   .   .    . .   ",
" ....     ....   .           .    .  .   .  ..    . .    . . .    . .     ....    .      .   .   .   .   .  ..   .   .   . . .  ",
" .           .   .       ....      ..     .. .     .     .. ..   .   .       .   .....    ....    ...     .. .   . ..           ",
" .           .                                                            ...                                    .              ",
"..   ...... .....    .....   ....    ....     ...     ....    ... ... ....   ........ ... ... ... ....... ... ... ... ....   ...",
". ... .... . .... ... ... ... ... ... ... ....... ....... ....... ... ..... ......... ... .. .... .......  .  ... ... ... ... ..",
". . . ... ... ... ... ... ....... ... ... ....... ....... ....... ... ..... ......... ... . ..... ....... . . ...  .. ... ... ..",
". .   ... ... ...    .... ....... ... ...    ....    .... .......     ..... ......... ...  ...... ....... . . ... . . ... ... ..",
". .  ....     ... ... ... ....... ... ... ....... ....... ..  ... ... ..... ......... ... . ..... ....... ... ... ..  ... ... ..",
". ....... ... ... ... ... ... ... ... ... ....... ....... ... ... ... ..... ..... ... ... .. .... ....... ... ... ... ... ... ..",
"..    ... ... ...    .....   ....    ....     ... ........    ... ... ....   .....   .... ... ...     ... ... ... ... ....   ...",
"................................................................................................................................",
".    .....   ....    .....   ....     ... ... ... ... ... ... ... ... ... ... ...     ...     ...........     ..................",
". ... ... ... ... ... ... ... ..... ..... ... ... ... ... ... ... ... ... ... ....... ...  ...... ..........  ..................",
". ... ... ... ... ... ... ......... ..... ... ... ... ... ... .... . ..... . ....... ....  ....... .........  ..... ............",
".    .... ... ...    .....   ...... ..... ... ... ... ... . . ..... ....... ....... .....  ........ ........  .... . ...........",
". ....... . . ... . ......... ..... ..... ... ... ... ... . . .... . ...... ...... ......  ......... .......  ... ... ..........",
". ....... .. .... .. .... ... ..... ..... ... .... . ....  .  ... ... ..... ..... .......  .......... ......  ..................",
". ........  . ... ... ....   ...... ......   ...... ..... ... ... ... ..... .....     ...     ...........     ..................",
"........................................................................................................................       .",
"........... ...... . ..... . ...... .....  ....... ........ ....... ....... ....... ............................................",
"........... ...... . ..... . .....    ...  .. ... . ....... ...... ......... .... . . ..... ................................. ..",
"........... ...... . ....     ... . ........ .... . ....... ..... ........... ....   ...... ................................ ...",
"........... .............. . .....   ...... ...... .............. ........... ..... .....     ...........     ............. ....",
"........... .............     ..... . .... ...... . . ........... ........... ....   ...... ....... ...................... .....",
".......................... . ....    .... ..  ... .. ............. ......... .... . . ..... ....... ..................... ......",
"........... .............. . ...... ........  ....  . ............. ....... ....... .............. ................ ............",
"................................................................................................................................",
"..   ...... ......   ....     ...... ....     .....   ...     ....   .....   ....................... ............. .......   ...",
". ... ....  ..... ... ....... .....  .... ........ .......... ... ... ... ... ..................... ............... ..... ... ..",
". ..  ..... ......... ...... ..... . ....    .... .......... .... ... ... ... ..... ....... ...... ......     ...... ....... ...",
". . . ..... .......  ......  .... .. ........ ...    ...... ......   .....    ................... ................... ..... ....",
".  .. ..... ...... .......... ...     ....... ... ... .... ...... ... ....... ..... ....... ...... ......     ...... ...... ....",
". ... ..... ..... ....... ... ...... .... ... ... ... .... ...... ... ...... .............. ....... ............... ............",
"..   .....   ....     ....   ....... .....   .....   ..... .......   ....   .............. ......... ............. ........ ....",
"................................................................................................................................",
"    .       .           .......         .......     ...            .               .       .    .......       . ......  ..  .   ",
"   .       .             .   .        . ......       ..    ..     .                .      ...                 . ......     ..   ",
" .. ..   .. ..   .        . .        .  ..... .  ...... ...      .                 .     . . .                . ......    ...   ",
"....... .     .  ..        .    .   .     .. .. .   ..          .......            .    .  .  .           .   . ......   ...... ",
"......  .    .   ...       .     . .    . . ... .  .... ...      .              .  .  .    .             ..   . ......    ...   ",
"......  .    .   ....     . .     .     .. ....     ..    ..      .              . . .     .            ....... ......     ..   ",
" ......  . .  .  .. ..   . . .    .     .. .... ......     .       .              ...      .             ..     ......      .   ",
" .. ..   .. ..   .    . .......         .......  .          ...          . . .     .       .              .     ......  .... .. ",
"  .  ..       .       .         .          .     . . .  . . . .                       .    .    .......   . .   ....... .       ",
"  ..       .  .    .  .         .           .   . . . .  . . .   .....                .   ...             . .         . .       ",
"  ...      .      ...           .            .   . . .  . . . . .     . ......        .  .....          ... ...       . .       ",
"......  .......  .....  ....... .       ....... . . . .  . . .  .             .       . .......                   ..  . .       ",
"  ...    .....  .......         .            .   . . .  . . . . .             .       .  .....          ... ...   ..  . .       ",
"  ..      ...      .            .           .   . . . .  . . .  .             .       .   ...             . .         . .       ",
"  .        .  .    .  .         .          .     . . .  . . . . ....... .......       .    .              . .         . .       ",
".. ....       .       .         .......         . . . .  . . .                        .         .......         ....... .       ",
".. .............. ................... .............  ............ ......... ........ .... ........  ............................",
"... ............. ................... ............ .. ........... ....................... ......... ............................",
".... .....   ....    .....    ....    ....   ..... .......   ....    .....  .......  .... ... ..... .....  .  ...    .....   ...",
"............. ... ... ... ....... ... ... ... ...    .... ... ... ... ..... ........ .... .. ...... ..... . . ... ... ... ... ..",
"..........    ... ... ... ....... ... ...     .... ...... ... ... ... ..... ........ ....   ....... ..... . . ... ... ... ... ..",
"......... ... ... ... ... ....... ... ... ........ .......    ... ... ..... ........ .... .. ...... ..... . . ... ... ... ... ..",
"..........    ...    .....    ....    ....    .... .......... ... ... ....   .... .. .... ... ....   .... ... ... ... ....   ...",
"..........................................................   .....................  ............................................",
".................................. ........................................................   ..... .....   ......  . ..........",
".................................. .......................................................  ....... .......  .... .  .... . . ..",
".    .....    ... .   ....    ...    .... ... ... ... ... ... ... ... ... ... ...     ....  ....... .......  ............. . ...",
". ... ... ... ...  ...... ........ ...... ... ... ... ... ... .... . .... ... ...... ....  ........ ........  ........... . . ..",
". ... ... ... ... ........   ..... ...... ... ... ... ... . . ..... ..... ... ..... ......  ....... .......  ............. . ...",
".    .....    ... ........... .... .. ... ..  .... . .... . . .... . .....    .... .......  ....... .......  ............ . . ..",
". ........... ... .......    ......  .....  . ..... .....  .  ... ... ....... ...     .....   ..... .....   ....................",
". ........... ............................................................   ...................... ............................",
"  ...      .     ....     ...    ....    .....   .....    ....   .   .    ...        .   .   .   .       .   .   .   .    ...   ",
" .   .    . .    .   .   .   .   .   .   .       .       .       .   .     .         .   .  .    .       .. ..   .   .   .   .  ",
" . . .   .   .   .   .   .       .   .   .       .       .       .   .     .         .   . .     .       . . .   ..  .   .   .  ",
" . ...   .   .   ....    .       .   .   ....    ....    .       .....     .         .   ..      .       . . .   . . .   .   .  ",
" . ..    .....   .   .   .       .   .   .       .       .  ..   .   .     .         .   . .     .       .   .   .  ..   .   .  ",
" .       .   .   .   .   .   .   .   .   .       .       .   .   .   .     .     .   .   .  .    .       .   .   .   .   .   .  ",
"  ....   .   .   ....     ...    ....    .....   .        ....   .   .    ...     ...    .   .   .....   .   .   .   .    ...   ",
"                                                                                                                                ",
" ....     ...    ....     ...    .....   .   .   .   .   .   .   .   .   .   .   .....   .....           .....                  ",
" .   .   .   .   .   .   .   .     .     .   .   .   .   .   .   .   .   .   .       .   ..      .          ..                  ",
" .   .   .   .   .   .   .         .     .   .   .   .   .   .    . .     . .       .    ..       .         ..     .            ",
" ....    .   .   ....     ...      .     .   .   .   .   . . .     .       .       .     ..        .        ..    . .           ",
" .       . . .   . .         .     .     .   .   .   .   . . .    . .      .      .      ..         .       ..   .   .          ",
" .       .  .    .  .    .   .     .     .   .    . .    .. ..   .   .     .     .       ..          .      ..                  ",
" .        .. .   .   .    ...      .      ...      .     .   .   .   .     .     .....   .....           .....                  ",
"                                                                                                                        ....... ",
"           .      . .     . .      .     ..       .        .       .       .       .                                            ",
"           .      . .     . .     ....   ..  .   . .       .      .         .    . . .     .                                 .  ",
"           .      . .    .....   . .        .    . .       .     .           .    ...      .                                .   ",
"           .              . .     ...      .      .              .           .     .     .....           .....             .    ",
"           .             .....     . .    .      . . .           .           .    ...      .       .                      .     ",
"                          . .    ....    .  ..   .  .             .         .    . . .     .       .                     .      ",
"           .              . .      .        ..    .. .             .       .       .              .                .            ",
"                                                                                                                                ",
"  ...      .      ...    .....      .    .....     ...   .....    ...     ...                       .             .       ...   ",
" .   .    ..     .   .       .     ..    .        .          .   .   .   .   .                     .               .     .   .  ",
" .  ..     .         .      .     . .    ....    .          .    .   .   .   .     .       .      .      .....      .       .   ",
" . . .     .       ..      ..    .  .        .   ....      .      ...     ....                   .                   .     .    ",
" ..  .     .      .          .   .....       .   .   .    .      .   .       .     .       .      .      .....      .      .    ",
" .   .     .     .       .   .      .    .   .   .   .    .      .   .      .              .       .               .            ",
"  ...     ...    .....    ...       .     ...     ...     .       ...    ...              .         .             .        .    ",
"                                                                                                                                ",
"  ...      .     ....     ...    ....    .....   .....    ....   .   .    ...        .   .   .   .       .   .   .   .    ...   ",
" .   .    . .    .   .   .   .   .   .   .       .       .       .   .     .         .   .  .    .       .. ..   .   .   .   .  ",
" . . .   .   .   .   .   .       .   .   .       .       .       .   .     .         .   . .     .       . . .   ..  .   .   .  ",
" . ...   .   .   ....    .       .   .   ....    ....    .       .....     .         .   ..      .       . . .   . . .   .   .  ",
" . ..    .....   .   .   .       .   .   .       .       .  ..   .   .     .         .   . .     .       .   .   .  ..   .   .  ",
" .       .   .   .   .   .   .   .   .   .       .       .   .   .   .     .     .   .   .  .    .       .   .   .   .   .   .  ",
"  ....   .   .   ....     ...    ....    .....   .        ....   .   .    ...     ...    .   .   .....   .   .   .   .    ...   ",
"                                                                                                                                ",
" ....     ...    ....     ...    .....   .   .   .   .   .   .   .   .   .   .   .....   .....           .....                  ",
" .   .   .   .   .   .   .   .     .     .   .   .   .   .   .   .   .   .   .       .   ..      .          ..                  ",
" .   .   .   .   .   .   .         .     .   .   .   .   .   .    . .     . .       .    ..       .         ..     .            ",
" ....    .   .   ....     ...      .     .   .   .   .   . . .     .       .       .     ..        .        ..    . .           ",
" .       . . .   . .         .     .     .   .   .   .   . . .    . .      .      .      ..         .       ..   .   .          ",
" .       .  .    .  .    .   .     .     .   .    . .    .. ..   .   .     .     .       ..          .      ..                  ",
" .        .. .   .   .    ...      .      ...      .     .   .   .   .     .     .....   .....           .....                  ",
"                                                                                                                        ....... ",
"  .              .                   .             ..            .         .        .    .        ..                            ",
"   .             .                   .            .  .           .                       .         .                            ",
"    .     ...    ....     ....    ....    ...     .       ...    ....     ..       ..    .   .     .     .. ..   ....     ...   ",
"             .   .   .   .       .   .   .   .   ....    .   .   .   .     .        .    .  .      .     . . .   .   .   .   .  ",
"          ....   .   .   .       .   .   .....    .      .   .   .   .     .        .    ...       .     . . .   .   .   .   .  ",
"         .   .   .   .   .       .   .   .        .       ....   .   .     .        .    .  .      .     . . .   .   .   .   .  ",
"          ....   ....     ....    ....    ....    .          .   .   .    ...    .  .    .   .    ...    .   .   .   .    ...   ",
"                                                          ...                     ..                                            ",
"                                  .                                                        ...     .     ...      .. .          ",
"                                  .                                                       ..       .       ..    . ..    . . .  ",
" ....     ....   . ...    ....   ....    .   .   .   .   .   .   .   .   .   .   .....    ..       .       ..             . .   ",
" .   .   .   .   ..      .        .      .   .   .   .   .   .    . .    .   .      .    ..        .        ..           . . .  ",
" .   .   .   .   .        ...     .      .   .   .   .   . . .     .     .   .     .      ..       .       ..             . .   ",
" ....     ....   .           .    .  .   .  ..    . .    . . .    . .     ....    .       ..       .       ..            . . .  ",
" .           .   .       ....      ..     .. .     .     .. ..   .   .       .   .....     ...     .     ...                    ",
" .           .                                                            ...                      .                            "
};
